packages/elvis-assets-icons/icons/svg/src/installatorweb-color.svg

<svg width="24" height="24" viewBox="0 0 24 24" fill="none" xmlns="http://www.w3.org/2000/svg">
<path fill-rule="evenodd" clip-rule="evenodd" d="M9 4.01919C9 3.59438 8.65562 3.25 8.23081 3.25H4.49992C3.25894 3.25 2.24996 4.28482 2.24996 5.55757V15.3889L0.193997 20.004C0.0649989 20.3004 0 20.6163 0 20.9414C0 22.2142 1.00898 23.249 2.24996 23.249V23.25H21.7496C22.0666 23.25 22.3736 23.1823 22.6636 23.051C23.7976 22.5341 24.3096 21.1681 23.8066 20.005C23.8046 19.9999 21.7496 15.3899 21.7496 15.3899V5.55757C21.7496 4.28482 20.7406 3.25 19.4997 3.25H15.7692C15.3444 3.25 15 3.59438 15 4.01919V4.01919C15 4.444 15.3444 4.78838 15.7692 4.78838H19.4997C19.9137 4.78838 20.2497 5.13298 20.2497 5.55757V14.7879H3.74994V5.55757C3.74994 5.13298 4.08593 4.78838 4.49992 4.78838H8.23081C8.65562 4.78838 9 4.444 9 4.01919V4.01919ZM1.56097 20.6368C1.52097 20.7301 1.49997 20.8337 1.49997 20.9424C1.49997 21.366 1.83697 21.7116 2.24996 21.7116H21.7496C21.8556 21.7116 21.9576 21.6891 22.0546 21.645C22.4316 21.4737 22.6026 21.0183 22.4356 20.6306L20.5177 16.3263H3.48194L1.56097 20.6368Z" fill="black"/>
<path d="M10.5 20.1684C10.086 20.1684 9.75 19.8238 9.75 19.3992C9.75 18.9746 10.086 18.63 10.5 18.63H13.4999C13.9139 18.63 14.2499 18.9746 14.2499 19.3992C14.2499 19.8238 13.9139 20.1684 13.4999 20.1684H10.5Z" fill="#29D305"/>
<path fill-rule="evenodd" clip-rule="evenodd" d="M12 3.5C12.4142 3.5 12.75 3.82052 12.75 4.21591L12.75 8.03409C12.75 8.42948 12.4142 8.75 12 8.75C11.5858 8.75 11.25 8.42948 11.25 8.03409L11.25 4.21591C11.25 3.82052 11.5858 3.5 12 3.5Z" fill="black"/>
<path d="M13 1.75C13 2.30228 12.5523 2.75 12 2.75C11.4477 2.75 11 2.30228 11 1.75C11 1.19772 11.4477 0.75 12 0.75C12.5523 0.75 13 1.19772 13 1.75Z" fill="black"/>
</svg>

<svg width="24" height="24" fill="none" xmlns="http://www.w3.org/2000/svg"><path fill-rule="evenodd" clip-rule="evenodd" d="M9 4.02a.77.77 0 00-.77-.77H4.5c-1.241 0-2.25 1.035-2.25 2.308v9.83L.194 20.005a2.336 2.336 0 00-.194.937c0 1.273 1.009 2.308 2.25 2.308v.001h19.5c.317 0 .624-.068.914-.199 1.134-.517 1.646-1.883 1.143-3.046L21.75 15.39V5.558c0-1.273-1.01-2.308-2.25-2.308h-3.73a.77.77 0 000 1.538h3.73a.76.76 0 01.75.77v9.23H3.75v-9.23a.76.76 0 01.75-.77h3.73A.77.77 0 009 4.02zM1.561 20.636a.774.774 0 00-.061.305c0 .424.337.77.75.77h19.5a.73.73 0 00.305-.067.778.778 0 00.38-1.014l-1.917-4.305H3.482l-1.921 4.31z" fill="#000"/><path d="M10.5 20.168a.76.76 0 01-.75-.769.76.76 0 01.75-.769h3a.76.76 0 01.75.77.76.76 0 01-.75.768h-3z" fill="#29D305"/><path fill-rule="evenodd" clip-rule="evenodd" d="M12 3.5c.414 0 .75.32.75.716v3.818c0 .395-.336.716-.75.716s-.75-.32-.75-.716V4.216c0-.395.336-.716.75-.716z" fill="#000"/><path d="M13 1.75a1 1 0 11-2 0 1 1 0 012 0z" fill="#000"/></svg>
